public/icons/icon/distribute-vertical.svg

<svg width="30" height="30" viewBox="0 0 30 30" fill="none" xmlns="http://www.w3.org/2000/svg">
<path d="M12.0002 2L18.0002 2V11C18.0002 11.5523 17.5525 12 17.0002 12H13.0002C12.448 12 12.0002 11.5523 12.0002 11V2Z" fill="black"/>
<path d="M12.0002 19C12.0002 18.4477 12.448 18 13.0002 18H17.0002C17.5525 18 18.0002 18.4477 18.0002 19V28H12.0002V19Z" fill="black"/>
<path d="M2 1C2 0.447715 2.44772 0 3 0H27C27.5523 0 28 0.447715 28 1C28 1.55228 27.5523 2 27 2H3C2.44772 2 2 1.55228 2 1Z" fill="black"/>
<path d="M2 29C2 28.4477 2.44772 28 3 28H27C27.5523 28 28 28.4477 28 29C28 29.5523 27.5523 30 27 30H3C2.44772 30 2 29.5523 2 29Z" fill="black"/>
</svg>

<svg xmlns="http://www.w3.org/2000/svg" width="30" height="30" fill="none"><path fill="#000" d="M12 2h6v9a1 1 0 0 1-1 1h-4a1 1 0 0 1-1-1V2ZM12 19a1 1 0 0 1 1-1h4a1 1 0 0 1 1 1v9h-6v-9ZM2 1a1 1 0 0 1 1-1h24a1 1 0 1 1 0 2H3a1 1 0 0 1-1-1ZM2 29a1 1 0 0 1 1-1h24a1 1 0 1 1 0 2H3a1 1 0 0 1-1-1Z"/></svg>
